X:1
T:Wise Maid, The
T:All around the World
R:reel
C:John Doherty? (1900-1980)
Z:id:hn-reel-40
M:C|
K:D
~F3G FEDE|FAAB AFED|d2 (3efg fdec|dBAF BE~E2|
~F3G FEDE|FAAB AFED|d2 (3efg fdec|1 dBAG FD ~D2:|2 dBAG FDFA||
|:d2AG FDFA|dfaf gfeg|fAdf eAce|dfed cA~A2|
BDGB ADFA|dfaf gfed|(3Bcd ec dBAG|1 FGEF DEFA:|2 FGEG FDDE||
"Variations:"
~F3G FEDE|FAAF AFAB|d2 (3efg fdAc|dAFA BE~E2|
~F3G FEDE|FAAF AFAB|d2 (3efg fdAc|1 dBAG FD ~D2:|2 dBAG FDFA||
|:d2AG FDFA|dfaf gfeg|f2df e2ce|dfed cA~A2|
BG~G2 AF~F2|dfaf gfed|(3Bcd ce dBAG|1 FGEF DEFA:|2 FGEG FDDE||

